X: 4456
T: Bonnie Kate
R: reel
M: 4/4
K: Gmajor
|:g3/2f/gf gddB|c/d/e dc BG GG/A/|
BG GA/B/ cA AB/c/|1 B/c/d cB Adef:|2 B/c/d cB A4||
|:BG GA/B/ cAdB|ec cd/e/ f2 ef|
g3/2a/ge d/e/f gB|c/d/e dc BGG2:|

